components/Company/logos/logo-mulesoft.svg

<svg height="140" viewBox="0 0 400 140" width="400" xmlns="http://www.w3.org/2000/svg"><g fill="#00a1df" transform="translate(44 24)"><path d="m46.5522079 89.4271186c-23.4330215 0-42.42015314-19.0728813-42.42015314-42.6118644-.05219833-23.538983 18.98713164-42.66440674 42.42015314-42.66440674 23.4330216 0 42.4200457 19.07288134 42.4200457 42.61186444 0 23.538983-18.9870241 42.6644067-42.4200457 42.6644067zm-.0523058-89.4271186c-25.6298673 0-46.4999021 20.859322-46.4999021 46.5s20.8700348 46.5 46.4999021 46.5 46.5000002-20.859322 46.5000002-46.5c.0522077-25.640678-20.8178271-46.5-46.5000002-46.5z"/><path d="m35.8445946 68.779949c-6.9414414-3.3186066-11.759009-10.7986406-11.759009-19.4902294 0-4.5828377 1.3468468-8.8496176 3.6261261-12.2735769l15.1261261 22.9668649h9.168919l15.1261261-22.9668649c2.2792793 3.4766355 3.6261261 7.7434155 3.6261261 12.2735769 0 8.1121496-4.1959459 15.1180969-10.3603604 18.7527613l2.9009009 11.3780798c11.1373874-5.8470688 18.7004505-17.5938827 18.7004505-31.184367 0-12.8530161-6.786036-24.0203908-16.8873874-30.1308411l-17.6126126 27.6023789-17.4054054-27.7077315c-10.204955 6.1104503-17.0945946 17.3831776-17.0945946 30.2361937 0 14.064571 8.1328829 26.2327953 19.8918919 31.7638063z"/><path d="m128.606061 51.2967914-11.560606-24.2967914h-6.045455v39h6.045455v-26.0695187l9.333333 19.0307486h4.507576l9.068181-19.0307486v26.0695187h6.045455v-39h-6.045455z"/><path d="m167.25 54.8518519c0 4.2518518-2.662037 6.1703703-5.856481 6.1703703-3.194445 0-5.69676-1.8666666-5.69676-6.1703703v-16.8518519h-5.696759v17.6814815c0 3.1111111.69213 5.7555555 2.875 7.8296296 1.703704 1.5555556 4.099537 2.4888889 6.974537 2.4888889s5.590278-1.037037 7.560185-3.1111111v2.8h5.590278v-27.637037h-5.696759v16.8z"/><path d="m183.551887 58.0227273v-31.0227273h-5.551887v31.3355615c0 4.118984 2.283019 7.6644385 7.575472 7.6644385h3.424528v-4.7446524h-2.438679c-2.231132 0-3.009434-1.0949198-3.009434-3.2326203z"/><path d="m196.693901 49.7651376c.053214-1.6440367.159642-2.466055.744996-3.6990826.904638-2.0550458 2.979985-3.4422018 5.640686-3.4422018 2.660702 0 4.682834 1.387156 5.587473 3.4422018.53214 1.2330276.744996 2.0550459.79821 3.6990826zm6.332468-11.7651376c-7.237107 0-12.026369 5.1376147-12.026369 13.9743119 0 10.4293578 5.640686 14.0256881 12.771366 14.0256881 5.002118 0 7.716033-1.4385321 10.58959-4.2642202l-3.671767-3.2880734c-2.022133 1.9522936-3.724982 2.8256881-6.864609 2.8256881-4.62962 0-7.237108-2.9284404-7.237108-7.6550459h18.412053v-2.4146789c.053214-7.7577981-4.36355-13.2036697-11.973156-13.2036697z"/><path d="m241.749064 46.4199475c-1.677903-1.4698163-3.722847-2.3622047-7.340824-2.9396325l-4.456929-.6824147c-1.782772-.2624672-3.40824-.9448819-4.404495-1.7847769-1.048689-.9448819-1.468164-2.2047244-1.468164-3.6745407 0-3.464567 2.516854-6.1417323 7.131086-6.1417323 3.303371 0 6.134831.7349081 8.546816 2.992126l3.775281-3.7270341c-3.355805-3.0971129-6.973783-4.4619423-12.164794-4.4619423-8.179775 0-13.108614 4.671916-13.108614 11.5485564 0 3.2020998.94382 5.6692914 2.883895 7.5065617 1.677903 1.6272966 4.247191 2.6771654 7.445693 3.1496063l4.614232.6824147c2.307116.3149606 3.303371.7349081 4.299626 1.67979 1.048689.9448819 1.573033 2.3622048 1.573033 4.0944882 0 3.7795276-2.988764 5.984252-8.074906 5.984252-4.037453 0-7.131086-.8923885-10.014981-3.7270341l-3.985019 3.8845144c3.722846 3.7795276 7.970037 5.1968504 13.895131 5.1968504 8.23221 0 14.104869-4.3044619 14.104869-11.5485564-.052434-3.3070866-1.101124-6.0892389-3.250936-8.0314961z"/><path d="m264.233708 59.5266055c-1.078652 1.0275229-2.534832 1.5926606-4.260674 1.5926606-1.725843 0-3.12809-.5651377-4.206742-1.5926606-1.779775-1.6440367-1.995505-4.5211009-1.995505-7.5009174s.21573-5.8055046 1.995505-7.5009175c1.078652-1.0275229 2.480899-1.5926605 4.206742-1.5926605 1.67191 0 3.182022.5137615 4.260674 1.5926605 1.725843 1.6440367 1.995505 4.521101 1.995505 7.5009175 0 2.9284403-.269662 5.8055046-1.995505 7.5009174zm-4.260674-21.5266055c-3.883146 0-6.687641 1.387156-8.575281 3.2366972-2.696629 2.7229358-3.397753 6.1651377-3.397753 10.7376147 0 4.6238532.701124 8.1174312 3.397753 10.7889909 1.833708 1.8495412 4.638202 3.2366972 8.575281 3.2366972 3.883146 0 6.741573-1.387156 8.629213-3.2366972 2.696629-2.7229358 3.397753-6.1651377 3.397753-10.7889909 0-4.572477-.701124-8.066055-3.397753-10.7376147-1.88764-1.7981651-4.746067-3.2366972-8.629213-3.2366972z"/><path d="m277.116788 34.7068966v4.2413793h-3.116788v4.2413793h3.116788v22.8103448h5.467154v-22.8103448h5.416058v-4.2413793h-5.416058v-3.9827587c0-2.0172413.970803-3.2068965 3.014598-3.2068965h2.40146v-4.7586207h-3.423358c-5.109489.0517241-7.459854 3.7758621-7.459854 7.7068966z"/><path d="m301.678967 31h-5.527675v8.5138686h-3.151292v4.3094891h3.151292v15.3985401c0 4.0467153 2.376383 7.7781022 7.542435 7.7781022h3.306273v-4.7824818h-2.273063c-2.06642 0-3.04797-1.2087591-3.04797-3.2583941v-15.1357664h5.321033v-4.3094891h-5.321033z"/><path d="m311.434783 36.3628319c-.086957.2654867-.217392.4867256-.434783.6637168-.217391.1769911-.391304.3539823-.652174.4424778-.217391.1327434-.521739.1769912-.826087.1769912s-.565217-.0442478-.826087-.1769912c-.260869-.1327433-.478261-.2654867-.652174-.4424778-.173913-.1769912-.347826-.4424779-.434782-.6637168-.086957-.2654868-.173913-.5752213-.173913-.8849558s.043478-.5752212.173913-.840708c.086956-.2654867.217391-.4867256.434782-.6637168.217392-.1769911.391305-.3539823.652174-.4424778.26087-.1327434.521739-.1769912.826087-.1769912s.565218.0442478.826087.1769912c.217391.1327433.478261.2654867.652174.4424778.173913.1769912.347826.3982301.434783.6637168.086956.2654868.173913.5752213.173913.840708-.043479.3539823-.086957.619469-.173913.8849558zm.391304-1.8584071c-.130435-.3097345-.304348-.5752213-.565217-.7964602-.217392-.2212389-.478261-.3982301-.782609-.5309734-.304348-.1327434-.608696-.1769912-.956522-.1769912s-.652174.0884956-.956522.1769912c-.304347.1327433-.565217.3097345-.826087.5309734-.217391.2212389-.391304.4867257-.565217.7964602-.130435.3097345-.173913.619469-.173913.9734513s.086957.7079646.173913 1.0176991c.130435.3097345.304348.5752213.565217.7964602.217392.2212389.478261.3982301.826087.5309734.304348.1327434.608696.1769912.956522.1769912s.652174-.0884956.956522-.1769912c.304348-.1327433.565217-.3097345.782609-.5309734.217391-.2212389.391304-.4867257.565217-.7964602.130435-.3097345.173913-.6637168.173913-1.0176991s-.043478-.6637168-.173913-.9734513z"/><path d="m309.88 35.2985075h-.44v-.9402985h.56c.08 0 .12 0 .2.0447761.08 0 .12.0447761.2.0895522s.12.0895523.12.1343284c.04.0447761.04.1343283.04.2238806 0 .1343283-.04.2238806-.08.2686567-.04.0895522-.08.1343283-.16.1343283-.08.0447762-.12.0447762-.2.0447762-.04 0-.12 0-.24 0zm.92.1343283c.12-.1343283.2-.3134328.2-.5820895 0-.3134329-.08-.4925373-.24-.6268657s-.4-.2238806-.72-.2238806h-1.04v3h.4v-1.2985075h.44l.72 1.2985075h.44l-.76-1.3432836c.28-.0447761.44-.0895522.56-.2238806z"/></g></svg>

<?xml version="1.0" encoding="UTF-8"?>
<svg width="400px" height="140px" viewBox="0 0 400 140" version="1.1" xmlns="http://www.w3.org/2000/svg" xmlns:xlink="http://www.w3.org/1999/xlink">
    <title>Artboard</title>
    <g id="Artboard" stroke="none" stroke-width="1" fill="none" fill-rule="evenodd">
        <g id="mulesoft-vector-logo" transform="translate(44.000000, 24.000000)" fill="#00A1DF" fill-rule="nonzero">
            <path d="M46.5522079,89.4271186 C23.1191864,89.4271186 4.13205476,70.3542373 4.13205476,46.8152542 C4.07985643,23.2762712 23.1191864,4.15084746 46.5522079,4.15084746 C69.9852295,4.15084746 88.9722536,23.2237288 88.9722536,46.7627119 C88.9722536,70.3016949 69.9852295,89.4271186 46.5522079,89.4271186 L46.5522079,89.4271186 Z M46.4999021,0 C20.8700348,0 0,20.859322 0,46.5 C0,72.140678 20.8700348,93 46.4999021,93 C72.1297694,93 92.9999023,72.140678 92.9999023,46.5 C93.05211,20.859322 72.1820752,0 46.4999021,0 L46.4999021,0 Z" id="Shape"></path>
            <path d="M35.8445946,68.779949 C28.9031532,65.4613424 24.0855856,57.9813084 24.0855856,49.2897196 C24.0855856,44.7068819 25.4324324,40.440102 27.7117117,37.0161427 L42.8378378,59.9830076 L52.0067568,59.9830076 L67.1328829,37.0161427 C69.4121622,40.4927782 70.759009,44.7595582 70.759009,49.2897196 C70.759009,57.4018692 66.5630631,64.4078165 60.3986486,68.0424809 L63.2995495,79.4205607 C74.4369369,73.5734919 82,61.826678 82,48.2361937 C82,35.3831776 75.213964,24.2158029 65.1126126,18.1053526 L47.5,45.7077315 L30.0945946,18 C19.8896396,24.1104503 13,35.3831776 13,48.2361937 C13,62.3007647 21.1328829,74.468989 32.8918919,80 L35.8445946,68.779949 L35.8445946,68.779949 Z" id="Path"></path>
            <polygon id="Path" points="128.606061 51.2967914 117.045455 27 111 27 111 66 117.045455 66 117.045455 39.9304813 126.378788 58.9612299 130.886364 58.9612299 139.954545 39.9304813 139.954545 66 146 66 146 27 139.954545 27"></polygon>
            <path d="M167.25,54.8518519 C167.25,59.1037037 164.587963,61.0222222 161.393519,61.0222222 C158.199074,61.0222222 155.696759,59.1555556 155.696759,54.8518519 L155.696759,38 L150,38 L150,55.6814815 C150,58.7925926 150.69213,61.437037 152.875,63.5111111 C154.578704,65.0666667 156.974537,66 159.849537,66 C162.724537,66 165.439815,64.962963 167.409722,62.8888889 L167.409722,65.6888889 L173,65.6888889 L173,38.0518519 L167.303241,38.0518519 L167.303241,54.8518519 L167.25,54.8518519 Z" id="Path"></path>
            <path d="M183.551887,58.0227273 L183.551887,27 L178,27 L178,58.3355615 C178,62.4545455 180.283019,66 185.575472,66 L189,66 L189,61.2553476 L186.561321,61.2553476 C184.330189,61.2553476 183.551887,60.1604278 183.551887,58.0227273 L183.551887,58.0227273 Z" id="Path"></path>
            <path d="M196.693901,49.7651376 C196.747115,48.1211009 196.853543,47.2990826 197.438897,46.066055 C198.343535,44.0110092 200.418882,42.6238532 203.079583,42.6238532 C205.740285,42.6238532 207.762417,44.0110092 208.667056,46.066055 C209.199196,47.2990826 209.412052,48.1211009 209.465266,49.7651376 L196.693901,49.7651376 L196.693901,49.7651376 Z M203.026369,38 C195.789262,38 191,43.1376147 191,51.9743119 C191,62.4036697 196.640686,66 203.771366,66 C208.773484,66 211.487399,64.5614679 214.360956,61.7357798 L210.689189,58.4477064 C208.667056,60.4 206.964207,61.2733945 203.82458,61.2733945 C199.19496,61.2733945 196.587472,58.3449541 196.587472,53.6183486 L214.999525,53.6183486 L214.999525,51.2036697 C215.052739,43.4458716 210.635975,38 203.026369,38 L203.026369,38 Z" id="Shape"></path>
            <path d="M241.749064,46.4199475 C240.071161,44.9501312 238.026217,44.0577428 234.40824,43.480315 L229.951311,42.7979003 C228.168539,42.5354331 226.543071,41.8530184 225.546816,41.0131234 C224.498127,40.0682415 224.078652,38.808399 224.078652,37.3385827 C224.078652,33.8740157 226.595506,31.1968504 231.209738,31.1968504 C234.513109,31.1968504 237.344569,31.9317585 239.756554,34.1889764 L243.531835,30.4619423 C240.17603,27.3648294 236.558052,26 231.367041,26 C223.187266,26 218.258427,30.671916 218.258427,37.5485564 C218.258427,40.7506562 219.202247,43.2178478 221.142322,45.0551181 C222.820225,46.6824147 225.389513,47.7322835 228.588015,48.2047244 L233.202247,48.8871391 C235.509363,49.2020997 236.505618,49.6220472 237.501873,50.5669291 C238.550562,51.511811 239.074906,52.9291339 239.074906,54.6614173 C239.074906,58.4409449 236.086142,60.6456693 231,60.6456693 C226.962547,60.6456693 223.868914,59.7532808 220.985019,56.9186352 L217,60.8031496 C220.722846,64.5826772 224.970037,66 230.895131,66 C239.127341,66 245,61.6955381 245,54.4514436 C244.947566,51.144357 243.898876,48.3622047 241.749064,46.4199475 L241.749064,46.4199475 Z" id="Path"></path>
            <path d="M264.233708,59.5266055 C263.155056,60.5541284 261.698876,61.1192661 259.973034,61.1192661 C258.247191,61.1192661 256.844944,60.5541284 255.766292,59.5266055 C253.986517,57.8825688 253.770787,55.0055046 253.770787,52.0256881 C253.770787,49.0458716 253.986517,46.2201835 255.766292,44.5247706 C256.844944,43.4972477 258.247191,42.9321101 259.973034,42.9321101 C261.644944,42.9321101 263.155056,43.4458716 264.233708,44.5247706 C265.959551,46.1688073 266.229213,49.0458716 266.229213,52.0256881 C266.229213,54.9541284 265.959551,57.8311927 264.233708,59.5266055 L264.233708,59.5266055 Z M259.973034,38 C256.089888,38 253.285393,39.387156 251.397753,41.2366972 C248.701124,43.959633 248,47.4018349 248,51.9743119 C248,56.5981651 248.701124,60.0917431 251.397753,62.7633028 C253.231461,64.612844 256.035955,66 259.973034,66 C263.85618,66 266.714607,64.612844 268.602247,62.7633028 C271.298876,60.040367 272,56.5981651 272,51.9743119 C272,47.4018349 271.298876,43.9082569 268.602247,41.2366972 C266.714607,39.4385321 263.85618,38 259.973034,38 L259.973034,38 Z" id="Shape"></path>
            <path d="M277.116788,34.7068966 L277.116788,38.9482759 L274,38.9482759 L274,43.1896552 L277.116788,43.1896552 L277.116788,66 L282.583942,66 L282.583942,43.1896552 L288,43.1896552 L288,38.9482759 L282.583942,38.9482759 L282.583942,34.9655172 C282.583942,32.9482759 283.554745,31.7586207 285.59854,31.7586207 L288,31.7586207 L288,27 L284.576642,27 C279.467153,27.0517241 277.116788,30.7758621 277.116788,34.7068966 L277.116788,34.7068966 Z" id="Path"></path>
            <path d="M301.678967,31 L296.151292,31 L296.151292,39.5138686 L293,39.5138686 L293,43.8233577 L296.151292,43.8233577 L296.151292,59.2218978 C296.151292,63.2686131 298.527675,67 303.693727,67 L307,67 L307,62.2175182 L304.726937,62.2175182 C302.660517,62.2175182 301.678967,61.0087591 301.678967,58.9591241 L301.678967,43.8233577 L307,43.8233577 L307,39.5138686 L301.678967,39.5138686 L301.678967,31 L301.678967,31 Z" id="Path"></path>
            <path d="M311.434783,36.3628319 C311.347826,36.6283186 311.217391,36.8495575 311,37.0265487 C310.782609,37.2035398 310.608696,37.380531 310.347826,37.4690265 C310.130435,37.6017699 309.826087,37.6460177 309.521739,37.6460177 C309.217391,37.6460177 308.956522,37.6017699 308.695652,37.4690265 C308.434783,37.3362832 308.217391,37.2035398 308.043478,37.0265487 C307.869565,36.8495575 307.695652,36.5840708 307.608696,36.3628319 C307.521739,36.0973451 307.434783,35.7876106 307.434783,35.4778761 C307.434783,35.1681416 307.478261,34.9026549 307.608696,34.6371681 C307.695652,34.3716814 307.826087,34.1504425 308.043478,33.9734513 C308.26087,33.7964602 308.434783,33.619469 308.695652,33.5309735 C308.956522,33.3982301 309.217391,33.3539823 309.521739,33.3539823 C309.826087,33.3539823 310.086957,33.3982301 310.347826,33.5309735 C310.565217,33.6637168 310.826087,33.7964602 311,33.9734513 C311.173913,34.1504425 311.347826,34.3716814 311.434783,34.6371681 C311.521739,34.9026549 311.608696,35.2123894 311.608696,35.4778761 C311.565217,35.8318584 311.521739,36.0973451 311.434783,36.3628319 L311.434783,36.3628319 Z M311.826087,34.5044248 C311.695652,34.1946903 311.521739,33.9292035 311.26087,33.7079646 C311.043478,33.4867257 310.782609,33.3097345 310.478261,33.1769912 C310.173913,33.0442478 309.869565,33 309.521739,33 C309.173913,33 308.869565,33.0884956 308.565217,33.1769912 C308.26087,33.3097345 308,33.4867257 307.73913,33.7079646 C307.521739,33.9292035 307.347826,34.1946903 307.173913,34.5044248 C307.043478,34.8141593 307,35.1238938 307,35.4778761 C307,35.8318584 307.086957,36.1858407 307.173913,36.4955752 C307.304348,36.8053097 307.478261,37.0707965 307.73913,37.2920354 C307.956522,37.5132743 308.217391,37.6902655 308.565217,37.8230088 C308.869565,37.9557522 309.173913,38 309.521739,38 C309.869565,38 310.173913,37.9115044 310.478261,37.8230088 C310.782609,37.6902655 311.043478,37.5132743 311.26087,37.2920354 C311.478261,37.0707965 311.652174,36.8053097 311.826087,36.4955752 C311.956522,36.1858407 312,35.8318584 312,35.4778761 C312,35.1238938 311.956522,34.8141593 311.826087,34.5044248 L311.826087,34.5044248 Z" id="Shape"></path>
            <path d="M309.88,35.2985075 L309.44,35.2985075 L309.44,34.358209 L310,34.358209 C310.08,34.358209 310.12,34.358209 310.2,34.4029851 C310.28,34.4029851 310.32,34.4477612 310.4,34.4925373 C310.48,34.5373134 310.52,34.5820896 310.52,34.6268657 C310.56,34.6716418 310.56,34.761194 310.56,34.8507463 C310.56,34.9850746 310.52,35.0746269 310.48,35.119403 C310.44,35.2089552 310.4,35.2537313 310.32,35.2537313 C310.24,35.2985075 310.2,35.2985075 310.12,35.2985075 C310.08,35.2985075 310,35.2985075 309.88,35.2985075 L309.88,35.2985075 Z M310.8,35.4328358 C310.92,35.2985075 311,35.119403 311,34.8507463 C311,34.5373134 310.92,34.358209 310.76,34.2238806 C310.6,34.0895522 310.36,34 310.04,34 L309,34 L309,37 L309.4,37 L309.4,35.7014925 L309.84,35.7014925 L310.56,37 L311,37 L310.24,35.6567164 C310.52,35.6119403 310.68,35.5671642 310.8,35.4328358 L310.8,35.4328358 Z" id="Shape"></path>
        </g>
    </g>
</svg>
